Catalina-dark/actions/16/list-remove-all.svg

<svg width="16" height="16" version="1.1" viewBox="0 0 16 16" xmlns="http://www.w3.org/2000/svg">
<defs>
<style id="current-color-scheme" type="text/css">.ColorScheme-Text { color:#5c616c; } .ColorScheme-Highlight { color:#5294e2; }</style>
</defs>
<path class="ColorScheme-Text" d="m3 3v2h10v-2h-10zm0 4v2h6.6875c0.77002-0.61639 1.7494-1 2.8125-1 0.17178 0 0.33323 0.0438 0.5 0.0625v-1.0625h-10zm0 4v2h5.0625c-0.0187-0.16677-0.0625-0.32822-0.0625-0.5 0-0.53043 0.11271-1.0274 0.28125-1.5h-5.2812z" fill="#f1f6f8" fill-opacity=".85098"/>
<path class="ColorScheme-Highlight" d="m12.5 9c-1.933 0-3.5 1.567-3.5 3.5s1.567 3.5 3.5 3.5 3.5-1.567 3.5-3.5-1.567-3.5-3.5-3.5zm-2.5 3h2.5 2.5v1h-5v-1z" fill="currentColor"/>
</svg>

<?xml version="1.0" encoding="UTF-8" standalone="no"?>
<svg
   xmlns:dc="http://purl.org/dc/elements/1.1/"
   xmlns:cc="http://creativecommons.org/ns#"
   xmlns:rdf="http://www.w3.org/1999/02/22-rdf-syntax-ns#"
   xmlns:svg="http://www.w3.org/2000/svg"
   xmlns="http://www.w3.org/2000/svg"
   xmlns:sodipodi="http://sodipodi.sourceforge.net/DTD/sodipodi-0.dtd"
   xmlns:inkscape="http://www.inkscape.org/namespaces/inkscape"
   width="16"
   height="16"
   viewBox="0 0 16 16"
   version="1.1"
   id="svg9"
   sodipodi:docname="list-remove-all.svg"
   inkscape:version="0.92.4 5da689c313, 2019-01-14">
  <metadata
     id="metadata13">
    <rdf:RDF>
      <cc:Work
         rdf:about="">
        <dc:format>image/svg+xml</dc:format>
        <dc:type
           rdf:resource="http://purl.org/dc/dcmitype/StillImage" />
      </cc:Work>
    </rdf:RDF>
  </metadata>
  <sodipodi:namedview
     pagecolor="#ffffff"
     bordercolor="#666666"
     borderopacity="1"
     objecttolerance="10"
     gridtolerance="10"
     guidetolerance="10"
     inkscape:pageopacity="0"
     inkscape:pageshadow="2"
     inkscape:window-width="640"
     inkscape:window-height="480"
     id="namedview11"
     showgrid="false"
     inkscape:zoom="14.75"
     inkscape:cx="6.8135593"
     inkscape:cy="5.2881356"
     inkscape:window-x="0"
     inkscape:window-y="26"
     inkscape:window-maximized="0"
     inkscape:current-layer="svg9" />
  <defs
     id="defs3">
    <style
       id="current-color-scheme"
       type="text/css">
   .ColorScheme-Text { color:#5c616c; } .ColorScheme-Highlight { color:#5294e2; }
  </style>
  </defs>
  <path
     style="fill:#f1f6f8;fill-opacity:0.8509804"
     class="ColorScheme-Text"
     d="M 3 3 L 3 5 L 13 5 L 13 3 L 3 3 z M 3 7 L 3 9 L 9.6875 9 C 10.45752 8.38361 11.4369 8 12.5 8 C 12.67178 8 12.83323 8.0438 13 8.0625 L 13 7 L 3 7 z M 3 11 L 3 13 L 8.0625 13 C 8.0438 12.83323 8 12.67178 8 12.5 C 8 11.96957 8.11271 11.4726 8.28125 11 L 3 11 z"
     id="path5" />
  <path
     style="fill:currentColor"
     class="ColorScheme-Highlight"
     d="M 12.5 9 C 10.567 9 9 10.567 9 12.5 C 9 14.433 10.567 16 12.5 16 C 14.433 16 16 14.433 16 12.5 C 16 10.567 14.433 9 12.5 9 z M 10 12 L 12.5 12 L 15 12 L 15 13 L 10 13 L 10 12 z"
     id="path7" />
</svg>
